lib/typescript/assets/images/icons/inbox.svg

<?xml version="1.0" encoding="utf-8"?>
<!-- Svg Vector Icons : http://www.onlinewebfonts.com/icon -->
<!DOCTYPE svg PUBLIC "-//W3C//DTD SVG 1.1//EN" "http://www.w3.org/Graphics/SVG/1.1/DTD/svg11.dtd">
  <svg height="24" width="24" viewBox="0 0 24 24" version="1.1" xmlns="http://www.w3.org/2000/svg">
    <g id="Page-1" stroke="none" strokeWidth="1" fill="none" fillRule="evenodd">
      <path
        d="M6.66950098,20.194054 C6.78680711,20.1738047 6.90728662,20.1911738 7.01479414,20.2438336 C8.24970655,20.8487235 9.60249807,21.1666667 11,21.1666667 C16.1546577,21.1666667 20.3333333,16.8387526 20.3333333,11.5 C20.3333333,6.16124742 16.1546577,1.83333333 11,1.83333333 C5.84534234,1.83333333 1.66666667,6.16124742 1.66666667,11.5 C1.66666667,13.5625158 2.29116679,15.525996 3.43363986,17.1609899 C3.55679411,17.337236 3.57894617,17.5684506 3.49163561,17.7663268 L2.07011168,20.9879962 L6.66950098,20.194054 Z M1.17923274,22.3667797 C0.718152472,22.4463709 0.358485755,21.9600439 0.552777259,21.5197115 L2.29191579,17.5782165 C1.13167226,15.7987723 0.5,13.6979499 0.5,11.5 C0.5,5.49390335 5.20101013,0.625 11,0.625 C16.7989899,0.625 21.5,5.49390335 21.5,11.5 C21.5,17.5060967 16.7989899,22.375 11,22.375 C9.49211711,22.375 8.02834146,22.0451915 6.68395673,21.4165595 L1.17923274,22.3667797 Z"
        id="inbox"
        fill="#FFFFFF"
        fillRule="nonzero"
      />
    </g>
  </svg>

<svg height="24" width="24" xmlns="http://www.w3.org/2000/svg"><path d="M6.67 20.194a.565.565 0 0 1 .345.05 9.028 9.028 0 0 0 3.985.923c5.155 0 9.333-4.328 9.333-9.667 0-5.339-4.178-9.667-9.333-9.667S1.667 6.161 1.667 11.5c0 2.063.624 4.026 1.767 5.661a.622.622 0 0 1 .058.605L2.07 20.988l4.6-.794zm-5.49 2.173c-.462.08-.822-.407-.627-.847l1.739-3.942A11.101 11.101 0 0 1 .5 11.5C.5 5.494 5.201.625 11 .625S21.5 5.494 21.5 11.5 16.799 22.375 11 22.375a10.16 10.16 0 0 1-4.316-.958l-5.505.95z" fill="#FFF"/></svg>
